dist/img/coop/control.svg

<svg width="80" height="80" viewBox="0 0 80 80" fill="none" xmlns="http://www.w3.org/2000/svg">
<rect width="80" height="80" rx="5" fill="#D1327F"/>
<path d="M26.3605 14.1602C26.2299 14.0291 26.0747 13.9251 25.9037 13.8541C25.7328 13.7831 25.5495 13.7466 25.3645 13.7466C25.1794 13.7466 24.9961 13.7831 24.8252 13.8541C24.6542 13.9251 24.499 14.0291 24.3684 14.1602L16.9059 21.5793L14.2457 18.9871C14.1151 18.856 13.9598 18.752 13.7889 18.681C13.618 18.6101 13.4347 18.5735 13.2496 18.5735C13.0645 18.5735 12.8813 18.6101 12.7103 18.681C12.5394 18.752 12.3842 18.856 12.2535 18.9871L10.4137 20.8293C10.2826 20.96 10.1785 21.1152 10.1076 21.2861C10.0366 21.4571 10.0001 21.6403 10.0001 21.8254C10.0001 22.0105 10.0366 22.1938 10.1076 22.3647C10.1785 22.5356 10.2826 22.6909 10.4137 22.8215L15.9906 28.3762C16.269 28.6408 16.6384 28.7884 17.0225 28.7884C17.4065 28.7884 17.7759 28.6408 18.0543 28.3762L19.8812 26.5457L28.3422 18.086C28.6058 17.8221 28.7548 17.465 28.7567 17.092C28.7587 16.7191 28.6135 16.3604 28.3527 16.0938L26.3605 14.1602ZM26.3605 32.8153C26.2299 32.6842 26.0747 32.5801 25.9037 32.5092C25.7328 32.4382 25.5495 32.4017 25.3645 32.4017C25.1794 32.4017 24.9961 32.4382 24.8252 32.5092C24.6542 32.5801 24.499 32.6842 24.3684 32.8153L16.9059 40.2825L14.2457 37.6926C14.1151 37.5615 13.9598 37.4575 13.7889 37.3865C13.618 37.3155 13.4347 37.279 13.2496 37.279C13.0645 37.279 12.8813 37.3155 12.7103 37.3865C12.5394 37.4575 12.3842 37.5615 12.2535 37.6926L10.4137 39.5313C10.2826 39.6619 10.1785 39.8172 10.1076 39.9881C10.0366 40.159 10.0001 40.3423 10.0001 40.5274C10.0001 40.7125 10.0366 40.8957 10.1076 41.0667C10.1785 41.2376 10.2826 41.3928 10.4137 41.5235L15.9766 47.0899C16.2547 47.3544 16.6239 47.5019 17.0078 47.5019C17.3917 47.5019 17.7609 47.3544 18.0391 47.0899L19.8789 45.2512L28.3398 36.7879C28.6025 36.5259 28.7509 36.1708 28.7529 35.7999C28.7549 35.4289 28.6102 35.0722 28.3504 34.8075L26.3605 32.8153ZM17.5 53.125C14.3957 53.125 11.8059 55.6446 11.8059 58.75C11.8059 61.8555 14.398 64.375 17.5 64.375C18.9918 64.375 20.4226 63.7824 21.4775 62.7275C22.5324 61.6726 23.125 60.2419 23.125 58.75C23.125 57.2582 22.5324 55.8274 21.4775 54.7726C20.4226 53.7177 18.9918 53.125 17.5 53.125ZM68.125 55H34.375C33.8777 55 33.4008 55.1976 33.0492 55.5492C32.6975 55.9008 32.5 56.3778 32.5 56.875V60.625C32.5 61.1223 32.6975 61.5992 33.0492 61.9509C33.4008 62.3025 33.8777 62.5 34.375 62.5H68.125C68.6223 62.5 69.0992 62.3025 69.4508 61.9509C69.8025 61.5992 70 61.1223 70 60.625V56.875C70 56.3778 69.8025 55.9008 69.4508 55.5492C69.0992 55.1976 68.6223 55 68.125 55ZM68.125 17.5H34.375C33.8777 17.5 33.4008 17.6976 33.0492 18.0492C32.6975 18.4008 32.5 18.8778 32.5 19.375V23.125C32.5 23.6223 32.6975 24.0992 33.0492 24.4509C33.4008 24.8025 33.8777 25 34.375 25H68.125C68.6223 25 69.0992 24.8025 69.4508 24.4509C69.8025 24.0992 70 23.6223 70 23.125V19.375C70 18.8778 69.8025 18.4008 69.4508 18.0492C69.0992 17.6976 68.6223 17.5 68.125 17.5V17.5ZM68.125 36.25H34.375C33.8777 36.25 33.4008 36.4476 33.0492 36.7992C32.6975 37.1508 32.5 37.6278 32.5 38.125V41.875C32.5 42.3723 32.6975 42.8492 33.0492 43.2009C33.4008 43.5525 33.8777 43.75 34.375 43.75H68.125C68.6223 43.75 69.0992 43.5525 69.4508 43.2009C69.8025 42.8492 70 42.3723 70 41.875V38.125C70 37.6278 69.8025 37.1508 69.4508 36.7992C69.0992 36.4476 68.6223 36.25 68.125 36.25Z" fill="#F1EDF3"/>
</svg>

<svg width="80" height="80" fill="none" xmlns="http://www.w3.org/2000/svg"><rect width="80" height="80" rx="5" fill="#D1327F"/><path d="M26.36 14.16a1.405 1.405 0 0 0-1.992 0l-7.462 7.42-2.66-2.593a1.406 1.406 0 0 0-1.992 0l-1.84 1.842a1.406 1.406 0 0 0 0 1.992l5.577 5.555a1.498 1.498 0 0 0 2.063 0l1.827-1.83 8.461-8.46a1.417 1.417 0 0 0 .01-1.992L26.36 14.16Zm0 18.655a1.404 1.404 0 0 0-1.992 0l-7.462 7.468-2.66-2.59a1.406 1.406 0 0 0-1.992 0l-1.84 1.838a1.405 1.405 0 0 0 0 1.992l5.563 5.567a1.496 1.496 0 0 0 2.062 0l1.84-1.839 8.46-8.463a1.406 1.406 0 0 0 .011-1.98l-1.99-1.993Zm-8.86 20.31c-3.104 0-5.694 2.52-5.694 5.625s2.592 5.625 5.694 5.625a5.625 5.625 0 1 0 0-11.25ZM68.125 55h-33.75a1.875 1.875 0 0 0-1.875 1.875v3.75a1.875 1.875 0 0 0 1.875 1.875h33.75A1.875 1.875 0 0 0 70 60.625v-3.75A1.875 1.875 0 0 0 68.125 55Zm0-37.5h-33.75a1.875 1.875 0 0 0-1.875 1.875v3.75A1.875 1.875 0 0 0 34.375 25h33.75A1.875 1.875 0 0 0 70 23.125v-3.75a1.875 1.875 0 0 0-1.875-1.875Zm0 18.75h-33.75a1.875 1.875 0 0 0-1.875 1.875v3.75a1.875 1.875 0 0 0 1.875 1.875h33.75A1.875 1.875 0 0 0 70 41.875v-3.75a1.875 1.875 0 0 0-1.875-1.875Z" fill="#F1EDF3"/></svg>
